docs/media/illustrations/indemnity.svg

<?xml version="1.0" encoding="UTF-8"?>
<svg version="1.1" viewBox="0 0 100 100" xmlns="http://www.w3.org/2000/svg" xmlns:xlink="http://www.w3.org/1999/xlink">
    <!--Generated by IJSVG (https://github.com/iconjar/IJSVG)-->
    <defs>
        <path d="M939.499,248.222c-0.55228,0 -1,-0.44772 -1,-1v-21.6923c0,-0.55228 0.44772,-1 1,-1h8.70275c0.55228,0 1,0.44772 1,1v21.6923c0,0.55228 -0.44772,1 -1,1Z" id="c"></path>
        <path d="M993.422,205.903c0,9.80266 -7.94663,17.7493 -17.7493,17.7493c-9.80266,0 -17.7493,-7.94663 -17.7493,-17.7493c0,-9.80266 7.94663,-17.7493 17.7493,-17.7493c9.80266,0 17.7493,7.94663 17.7493,17.7493Z" id="a"></path>
        <path d="M998.62,233.651c-0.401175,-0.003523 -0.798994,0.073329 -1.16999,0.226021l-13.7208,5.57075c-0.544353,0.222258 -1.12713,0.335199 -1.7151,0.332384h-1.32953c1.68885,0 3.05793,-1.36908 3.05793,-3.05793c0,-1.68885 -1.36908,-3.05793 -3.05793,-3.05793h-6.04938c-4.91928,0 -3.77588,-5.31814 -12.4311,-5.31814h-8.41595v16.8186c2.38641,-0.187166 4.78623,0.102077 7.05983,0.850903l3.39031,1.18329c2.81294,0.998916 5.7766,1.5071 8.76163,1.50237c1.93659,-0.000433 3.86722,-0.214452 5.75689,-0.638177c0.864198,0 20.1956,-8.18993 21.0332,-8.53561c1.33905,-0.563333 2.09693,-1.991 1.81327,-3.41575c-0.28366,-1.42475 -1.53056,-2.45328 -2.98326,-2.46079Z" id="b"></path>
    </defs>
    <g transform="matrix(1,0,0,1,-924,-171)">
        <path fill="#F6F5FA" fill-rule="evenodd" stroke="none" d="M1006.38,184.932c17.2431,17.2431 17.2431,45.1998 0,62.443c-17.2431,17.2431 -45.1998,17.2431 -62.443,0c-17.2431,-17.2431 -17.2431,-45.1998 0,-62.443c17.2431,-17.2431 45.1998,-17.2431 62.443,-2.84217e-14"></path>
        <use fill="#5DD9C1" stroke="none" xlink:href="#a"></use>
        <path fill="#AEECE0" stroke="none" d="M993.176,209.154c0.153783,-0.913904 0.233813,-1.8387 0.239316,-2.76543c0.176707,-6.45464 -3.16584,-12.4961 -8.72813,-15.7755c-5.56229,-3.27941 -12.4667,-3.27941 -18.029,0c-5.56229,3.27941 -8.90484,9.32083 -8.72813,15.7755c0.025185,0.927407 0.118504,1.85171 0.279202,2.76543c1.36297,-8.59242 8.757,-16.0047 17.4568,-16.0342c8.69979,-0.029525 16.149,7.41902 17.51,16.0342Z"></path>
        <use fill="none" fill-rule="evenodd" stroke="#585269" stroke-linejoin="round" stroke-width="1" xlink:href="#a"></use>
        <path fill="#AEECE0" stroke="#585269" stroke-width="1" d="M975.114,217.248c-0.969252,0 -1.75499,-0.785734 -1.75499,-1.75499v-0.957264c-2.14637,-0.737613 -3.58812,-2.75606 -3.58974,-5.02564c0.079458,-0.913773 0.844412,-1.6151 1.76163,-1.6151c0.917221,0 1.68218,0.701323 1.76163,1.6151c-0.005376,0.744482 0.439666,1.41841 1.12646,1.7058c0.686797,0.28739 1.47917,0.131263 2.00562,-0.395179c0.526443,-0.526443 0.68257,-1.31882 0.39518,-2.00562c-0.28739,-0.686798 -0.961314,-1.13184 -1.7058,-1.12646c-2.93713,0 -5.31814,-2.38101 -5.31814,-5.31814c0.001621,-2.26958 1.44337,-4.28803 3.58974,-5.02564v-0.957265c-0.010797,-0.46837 0.171969,-0.920476 0.505223,-1.24976c0.500492,-0.507672 1.25836,-0.662141 1.91762,-0.390852c0.65926,0.271289 1.08891,0.914424 1.08713,1.62732v0.957265c0.758288,0.260907 1.44873,0.687889 2.02089,1.24976c1.00851,1.00251 1.57353,2.36716 1.56885,3.78917c-0.079458,0.913773 -0.844412,1.6151 -1.76163,1.6151c-0.917221,0 -1.68218,-0.701323 -1.76163,-1.6151c0.005087,-0.498566 -0.191496,-0.978035 -0.545109,-1.32953c-0.350213,-0.354035 -0.83177,-0.546658 -1.32954,-0.531814c-0.744571,-0.010006 -1.42135,0.431 -1.71291,1.11618c-0.291567,0.685183 -0.140093,1.47863 0.38338,2.00822c0.350213,0.354035 0.83177,0.546658 1.32953,0.531814c2.93713,0 5.31814,2.38101 5.31814,5.31814c-0.001621,2.26958 -1.44337,4.28803 -3.58974,5.02564v0.957265c-0.007303,0.971398 -0.732552,1.78158 -1.7018,1.78158Z"></path>
        <path fill="#F6F5FA" stroke="none" d="M989.701,265.289c7.76227,0.898243 7.76227,2.35458 0,3.25283c-7.76227,0.898243 -20.3474,0.898243 -28.1097,0c-7.76227,-0.898243 -7.76227,-2.35458 0,-3.25283c7.76227,-0.898243 20.3474,-0.898243 28.1097,0"></path>
        <use fill="#FBE8DD" stroke="none" xlink:href="#b"></use>
        <path style="mix-blend-mode:darken;" fill="rgba(239,98,108,0.11)" stroke="none" d="M960.915,231.563c8.65527,0 7.51187,5.31814 12.4311,5.31814h5.91643c1.41665,0.003678 2.647,0.975867 2.97816,2.35328c1.12798,-0.743957 1.63397,-2.14004 1.24457,-3.43395c-0.389398,-1.2939 -1.58185,-2.17885 -2.93308,-2.17669h-5.91643c-4.91928,0 -3.77588,-5.31814 -12.4311,-5.31814h-8.41595v3.24407l7.12631,0.013295Z"></path>
        <path style="mix-blend-mode:darken;" fill="rgba(239,98,108,0.11)" stroke="none" d="M1001.68,236.708c0,-1.68885 -1.36908,-3.05793 -3.05793,-3.05793c-0.401175,-0.003523 -0.798994,0.073329 -1.16999,0.226021l-13.7208,5.57075c-0.544353,0.222258 -1.12713,0.335199 -1.7151,0.332384h-14.6249c-0.001046,1.56744 1.23892,2.85442 2.80532,2.91168c13.2953,0.425451 14.1728,-0.146249 26.1254,-5.50427c0.370574,-0.154102 0.768683,-0.231009 1.16999,-0.226021c1.3765,0.006204 2.57919,0.931353 2.93827,2.26021c0.80258,-0.582716 1.26934,-1.5212 1.24976,-2.51282Z"></path>
        <path fill="#FFCEBF" stroke="#585269" stroke-linecap="round" stroke-width="1" d="M980.552,239.78h-13.0028"></path>
        <use fill="none" fill-rule="evenodd" stroke="#585269" stroke-linecap="round" stroke-linejoin="round" stroke-width="1" xlink:href="#b"></use>
        <use fill="#78C0E0" stroke="#585269" stroke-linejoin="round" stroke-width="1" xlink:href="#c"></use>
        <path fill="#BBDFEF" stroke="none" d="M949.161,226.059c0.003583,-0.406594 -0.156353,-0.797577 -0.44387,-1.08509c-0.287517,-0.287517 -0.6785,-0.447453 -1.08509,-0.44387h-7.60494c-0.834021,0.014506 -1.5025,0.694817 -1.50237,1.52896v2.2868h10.6363l-5.9e-05,-2.2868Z"></path>
        <use fill="none" fill-rule="evenodd" stroke="#585269" stroke-linejoin="round" stroke-width="1" xlink:href="#c"></use>
        <g transform="matrix(1,0,0,1,951.535,236.376)">
            <g transform="matrix(-1,1.22465e-16,-1.22465e-16,-1,0,0)">
                <path fill="#FFF" stroke="#585269" stroke-linecap="round" stroke-linejoin="round" stroke-width="1" d="M950.571,226.059h3.25736v20.6344h-3.25736c-0.734281,0 -1.32953,-0.595253 -1.32953,-1.32953v-17.9753c0,-0.734282 0.595253,-1.32954 1.32953,-1.32954Z" transform="matrix(1,0,0,1,-951.535,-236.376)"></path>
            </g>
        </g>
    </g>
</svg>

<?xml version="1.0" encoding="UTF-8"?>
<svg width="100px" height="100px" viewBox="0 0 100 100" version="1.1" xmlns="http://www.w3.org/2000/svg" xmlns:xlink="http://www.w3.org/1999/xlink">
    <!-- Generator: Sketch Beta 51 (57462) - http://www.bohemiancoding.com/sketch -->
    <title>Group 18</title>
    <desc>Created with Sketch Beta.</desc>
    <defs></defs>
    <g id="Biings-3" stroke="none" stroke-width="1" fill="none" fill-rule="evenodd">
        <g id="Illustrations" transform="translate(-924.000000, -171.000000)">
            <circle id="Oval-3" fill="#F6F5FA" cx="975.153846" cy="216.153846" r="44.1538462"></circle>
            <path d="M993.421652,205.903134 C993.421652,215.705795 985.475026,223.652422 975.672365,223.652422 C965.869704,223.652422 957.923077,215.705795 957.923077,205.903134 C957.923077,196.100473 965.869704,188.153846 975.672365,188.153846 C985.475026,188.153846 993.421652,196.100473 993.421652,205.903134 Z" id="Shape" fill="#5DD9C1" fill-rule="nonzero"></path>
            <path d="M993.175716,209.154301 C993.329499,208.240397 993.409529,207.315605 993.415032,206.388869 C993.591739,199.93423 990.249191,193.892815 984.686902,190.613404 C979.124613,187.333993 972.220171,187.333993 966.657882,190.613404 C961.095594,193.892815 957.753045,199.93423 957.929752,206.388869 C957.954937,207.316276 958.048256,208.240577 958.208954,209.154301 C959.571923,200.561886 966.965951,193.149639 975.665745,193.120113 C984.365538,193.090588 991.814744,200.539134 993.175716,209.154301 Z" id="Shape" fill="#AEECE0" fill-rule="nonzero"></path>
            <path d="M993.421652,205.903134 C993.421652,215.705795 985.475026,223.652422 975.672365,223.652422 C965.869704,223.652422 957.923077,215.705795 957.923077,205.903134 C957.923077,196.100473 965.869704,188.153846 975.672365,188.153846 C985.475026,188.153846 993.421652,196.100473 993.421652,205.903134 Z" id="Shape" stroke="#585269" stroke-linejoin="round"></path>
            <path d="M975.11396,217.248492 C974.144708,217.248492 973.358974,216.462758 973.358974,215.493506 L973.358974,214.536242 C971.212602,213.798629 969.770851,211.780179 969.769231,209.510601 C969.848689,208.596828 970.613643,207.895505 971.530864,207.895505 C972.448085,207.895505 973.213039,208.596828 973.292498,209.510601 C973.287122,210.255083 973.732164,210.929007 974.418961,211.216397 C975.105758,211.503787 975.898135,211.34766 976.424577,210.821218 C976.95102,210.294775 977.107147,209.502399 976.819757,208.815602 C976.532367,208.128804 975.858443,207.683762 975.11396,207.689138 C972.176833,207.689138 969.795821,205.308126 969.795821,202.370999 C969.797442,200.101421 971.239193,198.082971 973.385565,197.345358 L973.385565,196.388093 C973.374768,195.919723 973.557534,195.467617 973.890788,195.138331 C974.39128,194.630659 975.149145,194.47619 975.808406,194.747479 C976.467666,195.018768 976.897313,195.661903 976.895537,196.374798 L976.895537,197.332063 C977.653825,197.59297 978.344265,198.019952 978.916429,198.581826 C979.924941,199.584339 980.489955,200.948991 980.48528,202.370999 C980.405822,203.284772 979.640868,203.986095 978.723647,203.986095 C977.806426,203.986095 977.041472,203.284772 976.962013,202.370999 C976.9671,201.872433 976.770517,201.392964 976.416904,201.041465 C976.066691,200.68743 975.585134,200.494807 975.087369,200.509651 C974.342798,200.499645 973.666022,200.940651 973.374455,201.625834 C973.082888,202.311017 973.234362,203.104469 973.757835,203.634057 C974.108048,203.988092 974.589605,204.180715 975.087369,204.165871 C978.024496,204.165871 980.405508,206.546883 980.405508,209.48401 C980.403887,211.753588 978.962137,213.772038 976.815764,214.509651 L976.815764,215.466916 C976.808461,216.438314 976.083212,217.248492 975.11396,217.248492 Z" id="Shape" stroke="#585269" fill="#AEECE0" fill-rule="nonzero"></path>
            <ellipse id="Oval" fill="#F6F5FA" fill-rule="nonzero" cx="975.645774" cy="266.91548" rx="19.8765432" ry="2.30009497"></ellipse>
            <path d="M998.620133,233.650522 C998.218958,233.646999 997.821139,233.723851 997.450142,233.876543 L983.729345,239.447293 C983.184992,239.669551 982.602216,239.782492 982.014245,239.779677 L980.68471,239.779677 C982.373558,239.779677 983.74264,238.410595 983.74264,236.721747 C983.74264,235.0329 982.373558,233.663818 980.68471,233.663818 L974.635328,233.663818 C969.716049,233.663818 970.859449,228.345679 962.204179,228.345679 L953.788224,228.345679 L953.788224,245.164292 C956.174639,244.977126 958.574451,245.266369 960.848053,246.015195 L964.238367,247.198481 C967.051306,248.197397 970.014964,248.705581 973,248.700855 C974.936588,248.700422 976.867221,248.486403 978.756885,248.062678 C979.621083,248.062678 998.952517,239.872745 999.790123,239.527066 C1001.12917,238.963733 1001.88705,237.536064 1001.60339,236.111312 C1001.31973,234.686559 1000.07283,233.658033 998.620133,233.650522 Z" id="Shape" fill="#FBE8DD" fill-rule="nonzero"></path>
            <path d="M960.91453,231.563153 C969.569801,231.563153 968.426401,236.881292 973.345679,236.881292 L979.262108,236.881292 C980.678763,236.88497 981.909104,237.857159 982.240266,239.234568 C983.36825,238.490611 983.874236,237.094526 983.484838,235.800622 C983.09544,234.506717 981.902984,233.621775 980.551757,233.623932 L974.635328,233.623932 C969.716049,233.623932 970.859449,228.305793 962.204179,228.305793 L953.788224,228.305793 L953.788224,231.549858 L960.91453,231.563153 Z" id="Shape" fill-opacity="0.12" fill="#EF626C" fill-rule="nonzero" style="mix-blend-mode: darken;"></path>
            <path d="M1001.67806,236.708452 C1001.67806,235.019604 1000.30898,233.650522 998.620133,233.650522 C998.218958,233.646999 997.821139,233.723851 997.450142,233.876543 L983.729345,239.447293 C983.184992,239.669551 982.602216,239.782492 982.014245,239.779677 L967.389364,239.779677 C967.388318,241.347116 968.628289,242.6341 970.194682,242.691358 C983.490028,243.116809 984.367521,242.545109 996.320038,237.187085 C996.690612,237.032983 997.088721,236.956076 997.490028,236.961064 C998.866529,236.967268 1000.06922,237.892417 1000.4283,239.221273 C1001.23088,238.638557 1001.69764,237.700074 1001.67806,236.708452 Z" id="Shape" fill-opacity="0.12" fill="#EF626C" fill-rule="nonzero" style="mix-blend-mode: darken;"></path>
            <path d="M980.551757,239.779677 L967.548908,239.779677" id="Shape" stroke="#585269" fill="#FFCEBF" fill-rule="nonzero" stroke-linecap="round"></path>
            <path d="M998.620133,233.650522 C998.218958,233.646999 997.821139,233.723851 997.450142,233.876543 L983.729345,239.447293 C983.184992,239.669551 982.602216,239.782492 982.014245,239.779677 L980.68471,239.779677 C982.373558,239.779677 983.74264,238.410595 983.74264,236.721747 C983.74264,235.0329 982.373558,233.663818 980.68471,233.663818 L974.635328,233.663818 C969.716049,233.663818 970.859449,228.345679 962.204179,228.345679 L953.788224,228.345679 L953.788224,245.164292 C956.174639,244.977126 958.574451,245.266369 960.848053,246.015195 L964.238367,247.198481 C967.051306,248.197397 970.014964,248.705581 973,248.700855 C974.936588,248.700422 976.867221,248.486403 978.756885,248.062678 C979.621083,248.062678 998.952517,239.872745 999.790123,239.527066 C1001.12917,238.963733 1001.88705,237.536064 1001.60339,236.111312 C1001.31973,234.686559 1000.07283,233.658033 998.620133,233.650522 Z" id="Shape" stroke="#585269" stroke-linecap="round" stroke-linejoin="round"></path>
            <rect id="Rectangle-path" stroke="#585269" fill="#78C0E0" fill-rule="nonzero" stroke-linejoin="round" x="938.498575" y="224.529915" width="10.702754" height="23.6923077" rx="1"></rect>
            <path d="M949.161443,226.058879 C949.165026,225.652285 949.00509,225.261302 948.717573,224.973785 C948.430056,224.686268 948.039073,224.526332 947.632479,224.529915 L940.02754,224.529915 C939.193519,224.544421 938.52504,225.224732 938.525166,226.058879 L938.525166,228.345679 L949.161502,228.345679 L949.161443,226.058879 Z" id="Shape" fill="#BBDFEF" fill-rule="nonzero"></path>
            <rect id="Rectangle-path" stroke="#585269" stroke-linejoin="round" x="938.498575" y="224.529915" width="10.702754" height="23.6923077" rx="1"></rect>
            <path d="M950.57075,226.058879 L953.82811,226.058879 L953.82811,246.693257 L950.57075,246.693257 C949.836469,246.693257 949.241216,246.098004 949.241216,245.363723 L949.241216,227.388414 C949.241216,226.654132 949.836469,226.058879 950.57075,226.058879 Z" id="Shape" stroke="#585269" fill="#FFFFFF" fill-rule="nonzero" stroke-linecap="round" stroke-linejoin="round" transform="translate(951.534663, 236.376068) rotate(180.000000) translate(-951.534663, -236.376068) "></path>
        </g>
    </g>
</svg>
